X: 1356
T: An Port Ard
R: jig
M: 6/8
K: Edorian
|:ef|"Em"gfe "D/F#"fed|"Bm"Bcd "Em"e2 (f|"Em/G"g)fe "D"f2 e|"D"dBA "Bm"B2 ef|
"Em/G"gfe ~"D/F#"f2e|"Bm/D"dBc "D"d2 e|"D"dBA "F#m"FGA|"Em"BGE E2:|
|:F|"G"G2 A~GA|"Em"Bee "Bm"dBA|"Em/G"GEF G2 B|"Bm"BAG ABA
"Em"GEF G2A|Bee "Em7/D"dee|"Bm"dBA "F#m"FGA|"Em"BGE E2:|

